packages/core/src/svgs/rmrk.svg

<svg width="24" height="24" viewBox="0 0 24 24" fill="none" xmlns="http://www.w3.org/2000/svg">
<g clip-path="url(#clip0_31_17375)">
<path d="M0 0H24V24H0V0Z" fill="#38157B"/>
<path d="M7.62878 12.8571H7.38878C7.2945 12.6428 7.15307 12.4885 6.92593 12.4285C7.13593 12.3771 7.44878 12.2056 7.54736 11.9999H7.78735C7.87118 11.7874 7.90058 11.5573 7.87289 11.3305C7.84519 11.1037 7.76129 10.8875 7.62878 10.7014C7.4145 10.4442 7.05021 10.2856 6.48878 10.2856H4.7145V11.9999H4.43164V12.8571H4.7145V13.7142H5.57164V12.8571H6.20164C6.47593 12.8571 6.5745 13.0885 6.74164 13.4742L6.8445 13.7099H7.97164C7.89878 13.5428 7.81307 13.3242 7.7445 13.1442L7.62878 12.8571ZM5.57164 11.1428H6.42878C6.61307 11.1428 6.7845 11.3871 6.7845 11.5714C6.7845 11.7556 6.61307 11.9999 6.4245 11.9999H5.57164V11.1428ZM15.4759 12.8571H15.7159L15.8574 13.1999C15.9216 13.3714 15.9988 13.5599 16.0631 13.7099H14.9316L14.8288 13.4742C14.6659 13.0885 14.5674 12.8571 14.2931 12.8571H13.7145V13.7142H12.8574V12.8571H12.5745V11.9999H12.8574V10.2856H14.5759C15.3174 10.2856 15.9602 10.6671 15.9474 11.4514C15.9474 11.5628 15.9216 11.8971 15.8788 11.9999H15.6345C15.4931 12.2914 15.3045 12.3556 15.0131 12.4285C15.2445 12.4885 15.3859 12.6428 15.4759 12.8571ZM14.5159 11.1428H13.7145V11.9999H14.5159C14.7002 11.9999 14.8716 11.7556 14.8716 11.5714C14.8716 11.3871 14.7002 11.1428 14.5159 11.1428ZM19.4616 12.9299L19.2088 12.8571L19.8302 13.7142H18.6174L18.0088 12.8571H18.2574L17.9274 12.4156L17.4945 12.8571H17.1431V13.7142H16.2859V12.8571H16.5474V11.9999H16.2859V10.2856H17.1431V11.6399L18.4802 10.2856H19.7959L18.3431 11.7856L18.4631 11.9999H18.7159L19.4616 12.9299ZM10.5474 11.1556L10.9331 10.2856H12.1974V11.8499H12.0002V12.8571H12.1974V13.7142H11.2888V12.8571H11.0916V11.8499H10.9502L10.5174 12.8571H10.7574L10.4274 13.7142H10.0502L9.70735 12.8614H9.47593L9.06021 11.8542H9.00021V12.8571H9.19307V13.7099H8.2845V12.8571H8.09164V11.8499H8.2845V10.2856H9.55735L9.94307 11.1556L10.2345 11.8499H10.2602L10.5474 11.1556ZM9.19735 11.6142V11.8499H9.3045L9.19735 11.6142ZM11.2974 11.6142L11.1902 11.8499H11.2974V11.6142Z" fill="#E92E88"/>
<path d="M21.2012 12V9.35574C21.2012 9.30866 21.1919 9.26206 21.1738 9.21862C21.1556 9.17518 21.129 9.13577 21.0955 9.10269C21.0621 9.0696 21.0223 9.04349 20.9787 9.02586C20.935 9.00824 20.8883 8.99946 20.8412 9.00003H3.35553C3.26154 9.00114 3.1717 9.03897 3.10524 9.10544C3.03877 9.17191 3.00093 9.26174 2.99982 9.35574V12H2.74268V12.8615H2.99982V14.6443C2.99982 14.6914 3.00916 14.738 3.0273 14.7814C3.04544 14.8249 3.07203 14.8643 3.10552 14.8974C3.139 14.9305 3.17872 14.9566 3.22238 14.9742C3.26603 14.9918 3.31275 15.0006 3.35982 15H20.8412C20.936 15 21.0269 14.9627 21.0943 14.8961C21.1617 14.8295 21.2001 14.739 21.2012 14.6443V12.8572H20.9998V12H21.2012ZM20.5155 12.8529V14.3143H3.71982V12.8572H3.42839V12H3.71553V9.67717H20.5155V12H20.3184V12.8572H20.5198V12.8529H20.5155Z" fill="#E92E88"/>
</g>
<defs>
<clipPath id="clip0_31_17375">
<rect width="24" height="24" fill="white"/>
</clipPath>
</defs>
</svg>

<svg xmlns="http://www.w3.org/2000/svg" width="24" height="24" fill="none" viewBox="0 0 24 24"><g clip-path="url(#a)"><path fill="#38157B" d="M0 0h24v24H0z"/><path fill="#E92E88" d="M7.629 12.857h-.24c-.095-.214-.236-.368-.463-.428.21-.052.523-.223.621-.43h.24a1.37 1.37 0 0 0-.158-1.298c-.214-.257-.579-.415-1.14-.415H4.715V12h-.283v.857h.282v.857h.858v-.857h.63c.274 0 .372.232.54.617l.103.236h1.127a14 14 0 0 1-.228-.566zm-2.057-1.714h.857c.184 0 .356.244.356.428 0 .185-.172.429-.36.429h-.853zm9.904 1.714h.24l.141.343c.065.171.142.36.206.51h-1.131l-.103-.236c-.163-.386-.262-.617-.536-.617h-.578v.857h-.858v-.857h-.282V12h.282v-1.714h1.719c.741 0 1.384.381 1.371 1.165 0 .112-.025.446-.068.549h-.245c-.14.291-.33.356-.62.428.23.06.372.215.462.43m-.96-1.714h-.802V12h.802c.184 0 .356-.244.356-.429 0-.184-.172-.428-.356-.428m4.946 1.787-.253-.073.621.857h-1.213l-.608-.857h.248l-.33-.441-.433.441h-.35v.857h-.858v-.857h.261V12h-.261v-1.714h.857v1.354l1.337-1.354h1.316l-1.453 1.5.12.214h.253zm-8.915-1.774.386-.87h1.264v1.564H12v1.007h.197v.857h-.908v-.857h-.197V11.85h-.142l-.433 1.007h.24l-.33.857h-.377l-.343-.853h-.231l-.416-1.007H9v1.003h.193v.853h-.909v-.853h-.192V11.85h.192v-1.564h1.273l.386.87.292.694h.025zm-1.35.458v.236h.108zm2.1 0-.107.236h.107z"/><path fill="#E92E88" d="M21.201 12V9.356a.356.356 0 0 0-.36-.356H3.356A.36.36 0 0 0 3 9.356V12h-.257v.861H3v1.783a.355.355 0 0 0 .36.356H20.84a.36.36 0 0 0 .36-.356v-1.787H21V12zm-.686.853v1.461H3.72v-1.457h-.292V12h.288V9.677h16.8V12h-.198v.857h.202v-.004z"/></g><defs><clipPath id="a"><path fill="#fff" d="M0 0h24v24H0z"/></clipPath></defs></svg>
